X:365
T:Aaron's Key
R:jig
C:Maurice Lennon
Z:Transcribed by Dave Marshall
M:6/8
K:Bmin
| F2B Bcd | c2A ABc | d2B Bcd | edc BAG |
F2B Bcd | c2A ABc | dcd ede | fdB BAG |
F2B Bcd | c2A ABc | d2B Bcd | efd efg |
~f3 fed | c2A ABc | dcd ede | fdB B2c
|: ~d3 def | ecA a2g | ~f3 fed | cec ABc |
BAB cBc | dcd ede | fed cBA |1 ~B3 B2c :|2 ~B3 BAG |
